X: 1
T: Credo I
N: Derived from Isa1038-Credo_I.krn
C: Heinrich Isaac
%%abc-version 2.0
%%abcx-abcm2ps-target-version 5.9.1 (29 Sep 2008)
%%abc-creator hum2abc beta
%%abcx-conversion-date 2019/02/16 20:38:43
%%abc-edited-by Jesse Rodin
%%abc-edited-by Megan K. Eagen 2014/09/22
%%abcx-initial-encoding-date 2014/09/22/
%%humdrum-veritas 1318061437
%%humdrum-veritas-data 1064722854
%%linebreak <none>
%%barnumbers 0
L: 1/4
M: 2/1
Q: 1/2=120
%%staves [1 2 3 4]
V: 1 clef=treble
V: 2 clef=treble-8
V: 3 clef=treble-8
V: 4 clef=bass
K: C
[V:1] e8 | 
[V:2] a8 | 
[V:3] z8 | 
[V:4] z8 | 
[V:1] f8 | 
[V:2] d8 | 
[V:3] z8 | 
[V:4] z8 | 
[V:1] e4z2e2 | 
[V:2] a4z2a2 | 
[V:3] e4f2e2 | 
[V:4] A,4D,2A,2 | 
[V:1] c2d2d2^c2 | 
[V:2] a2g2a4 | 
[V:3] f2d2e4 | 
[V:4] A,2B,2A,4 | 
[V:1] d4B2c2 | 
[V:2] f4z2e2 | 
[V:3] d4z4 | 
[V:4] D,4z4 | 
[V:1] d2e2d2B2 | 
[V:2] f2g2g2g2 | 
[V:3] z8 | 
[V:4] z8 | 
[V:1] c2d2edcB | 
[V:2] e2f2g2ag | 
[V:3] z8 | 
[V:4] z8 | 
[V:1] A2d4c2 | 
[V:2] fedfe4 | 
[V:3] z8 | 
[V:4] z8 | 
[V:1] B2d3cBA | 
[V:2] d3cBAG2 | 
[V:3] d3dd2d2 | 
[V:4] z4z2G,2- | 
[V:1] G4z4 | 
[V:2] z8 | 
[V:3] e4d2c2 | 
[V:4] G,G,G,2G,2A,2- | 
[V:1] z8 | 
[V:2] z8 | 
[V:3] B4A2e2- | 
[V:4] A,2G,2F,2E,2- | 
[V:1] z8 | 
[V:2] z8 | 
[V:3] e2f4e2- | 
[V:4] E,2D,4A,2- | 
[V:1] z8 | 
[V:2] z8 | 
[V:3] e2c2d2e2- | 
[V:4] A,B,CA,B,A,G,F, | 
[V:1] z8 | 
[V:2] z8 | 
[V:3] efd4^c2 | 
[V:4] G,D,F,2E,4 | 
[V:1] z4B3c | 
[V:2] z4z2e2 | 
[V:3] d4z4 | 
[V:4] D,4G,4 | 
[V:1] d2e2d2c2 | 
[V:2] f2g4a2- | 
[V:3] z8 | 
[V:4] z8 | 
[V:1] B4c4 | 
[V:2] a2g2f2e2- | 
[V:3] z8 | 
[V:4] z8 | 
[V:1] B3cd4 | 
[V:2] efgaf3e/d/ | 
[V:3] z8 | 
[V:4] z8 | 
[V:1] e4z4 | 
[V:2] c4z4 | 
[V:3] z4z2e2 | 
[V:4] z2A,2_B,2A,2 | 
[V:1] z8 | 
[V:2] z8 | 
[V:3] f2e2c2d2 | 
[V:4] F,2G,2A,2F,2 | 
[V:1] z8 | 
[V:2] z8 | 
[V:3] e2d2d2^c2 | 
[V:4] G,F,E,D,E,2E,2 | 
[V:1] z2B4c2 | 
[V:2] z4z2e2 | 
[V:3] d4z4 | 
[V:4] D,4z4 | 
[V:1] d2B2c2d2 | 
[V:2] f2g2e2f2 | 
[V:3] z8 | 
[V:4] z8 | 
[V:1] e4z4 | 
[V:2] g2a6 | 
[V:3] z4z2e2 | 
[V:4] z2A,3B,CB,/C/ | 
[V:1] z8 | 
[V:2] a4z4 | 
[V:3] f2e2c2d2 | 
[V:4] D2CB,A,G,F,G, | 
[V:1] z4z2d2 | 
[V:2] z4z2g2 | 
[V:3] d2^c2d4 | 
[V:4] E,2E,2D,2G,2 | 
[V:1] d2e2d2B2 | 
[V:2] g2e2g2g2 | 
[V:3] z4z2d2 | 
[V:4] z4z2G,2 | 
[V:1] z8 | 
[V:2] z8 | 
[V:3] d2e2d3c | 
[V:4] G,2E,2G,2G,2 | 
[V:1] z2B2BABc | 
[V:2] z2g2g3a | 
[V:3] B4z4 | 
[V:4] G,4z4 | 
[V:1] d2e4d2 | 
[V:2] g2e2f4 | 
[V:3] z8 | 
[V:4] z8 | 
[V:1] e4z2B2 | 
[V:2] e2g2a2g2 | 
[V:3] z2e2f2e2 | 
[V:4] z4z2G,2 | 
[V:1] c2BAGFA2- | 
[V:2] e4z2A2 | 
[V:3] c2e4d2- | 
[V:4] A,2G,4F,2 | 
[V:1] AGG4^F2 | 
[V:2] B2c2A4 | 
[V:3] d2c2d4 | 
[V:4] E,4D,4 | 
[V:1] G4z4 | 
[V:2] G8 | 
[V:3] B6G2 | 
[V:4] D3DD2E2 | 
[V:1] d3dd2e2 | 
[V:2] z4g3g | 
[V:3] G8 | 
[V:4] D4B,4 | 
[V:1] d2c2B4 | 
[V:2] g2a2g3f | 
[V:3] z8 | 
[V:4] z8 | 
[V:1] z2c4A2 | 
[V:2] e4z2f2 | 
[V:3] z8 | 
[V:4] z8 | 
[V:1] B2c2d4 | 
[V:2] d2e2f2g2- | 
[V:3] z8 | 
[V:4] z8 | 
[V:1] B2c2d4 | 
[V:2] g2e2f2g2 | 
[V:3] z8 | 
[V:4] z8 | 
[V:1] e8 | 
[V:2] c2B2B2B2 | 
[V:3] z2e2e2e2 | 
[V:4] z2G,2G,2G,2 | 
[V:1] z8 | 
[V:2] c3BA2G2 | 
[V:3] f3ed2^c2 | 
[V:4] A,3G,F,2E,2 | 
[V:1] z8 | 
[V:2] A2B2A4 | 
[V:3] d8 | 
[V:4] D,2G,4^F,2 | 
[V:1] B3cd2e2 | 
[V:2] G4g4- | 
[V:3] z4B3c | 
[V:4] G,8- | 
[V:1] d3cB4 | 
[V:2] g4z2d2 | 
[V:3] d2e2d3c | 
[V:4] G,8 | 
[V:1] z2d2d2d2 | 
[V:2] d2d2d4 | 
[V:3] d4z4 | 
[V:4] z4z2G,2 | 
[V:1] d4B4 | 
[V:2] B3cd4 | 
[V:3] z8 | 
[V:4] G,2G,2G,4 | 
[V:1] z8 | 
[V:2] e8- | 
[V:3] z8 | 
[V:4] E,3F,G,4 | 
[V:1] z2c2c2c2 | 
[V:2] e4z2a2 | 
[V:3] z2e2e2e2 | 
[V:4] A,2A,2A,2A,2 | 
[V:1] z2c2c3B | 
[V:2] a4a2A2 | 
[V:3] f3e/d/cBe2- | 
[V:4] F,3G,A,B,C2- | 
[V:1] A2G2A4 | 
[V:2] c2d2e4 | 
[V:3] e2d4^c2 | 
[V:4] CA,B,2A,4 | 
[V:1] z8 | 
[V:2] d2g4^f2 | 
[V:3] d8- | 
[V:4] B,2G,2D4 | 
[V:1] z2B2c2d2 | 
[V:2] g2z2e2f2 | 
[V:3] d4z4 | 
[V:4] G,4z4 | 
[V:1] d2d3cB2- | 
[V:2] g2g2g3f | 
[V:3] z8 | 
[V:4] z8 | 
[V:1] B2B2c2A2 | 
[V:2] e4e2f2 | 
[V:3] z8 | 
[V:4] z8 | 
[V:1] B2c2d4 | 
[V:2] d2e2f2g2- | 
[V:3] z8 | 
[V:4] z8 | 
[V:1] e2c4c2 | 
[V:2] g2a4A2 | 
[V:3] z2e4e2 | 
[V:4] z2A,4A,2 | 
[V:1] A2B2c2A2- | 
[V:2] c2B2A2F2 | 
[V:3] f2edc2d2 | 
[V:4] F,2G,2A,2D,2 | 
[V:1] AGG4^F2 | 
[V:2] G4A4 | 
[V:3] d2c2d4 | 
[V:4] E,2E,2D,4 | 
[V:1] G2A2A2A2 | 
[V:2] G2c2c2c2 | 
[V:3] z2e2e2e2 | 
[V:4] z2A,2A,2A,2 | 
[V:1] A2GFE2F2 | 
[V:2] A2B2c2BA | 
[V:3] f2edc2d2- | 
[V:4] F,2G,2A,2D,2 | 
[V:1] EDG4^F2 | 
[V:2] G4A4 | 
[V:3] d2c2d4- | 
[V:4] E,4D,4 | 
[V:1] G4z2d2- | 
[V:2] G8 | 
[V:3] d4z4 | 
[V:4] z2D2E2D2 | 
[V:1] d2e2d2B2 | 
[V:2] z4z2g2- | 
[V:3] z8 | 
[V:4] B,2C2B,2G,2 | 
[V:1] c2c2B2e2 | 
[V:2] g2a2g2e2 | 
[V:3] z8 | 
[V:4] z8 | 
[V:1] e2d2e2e2 | 
[V:2] f2f2e2a2 | 
[V:3] z8 | 
[V:4] z4z2C2 | 
[V:1] f2e2c2e2- | 
[V:2] a2g2a4- | 
[V:3] z2e2f2e2 | 
[V:4] D2E2A,4 | 
[V:1] e2d4^c2 | 
[V:2] a4z2a2 | 
[V:3] c2d2e4 | 
[V:4] z2F,2G,2A,2 | 
[V:1] d4z2d2- | 
[V:2] _b2a2f2a2- | 
[V:3] d2A2_B2A2 | 
[V:4] D,2D,4D,2 | 
[V:1] ddddd2d2 | 
[V:2] agg4^f2 | 
[V:3] F2G2A2A2 | 
[V:4] D,2D,2D,2D,2 | 
[V:1] B8 ||  
[V:2] g8 ||  
[V:3] G8 & d8 ||  
[V:4] G,8 ||  
[V:1]  [K:C] [K:clef=treble][M:2/1]d4d2e2 | 
[V:2]  [K:C] [K:clef=treble-8][M:2/1]z8 | 
[V:3]  [K:C] [K:clef=treble-8][M:2/1]z8 | 
[V:4]  [K:C] [K:clef=bass][M:2/1]z8 | 
[V:1] d4B4 | 
[V:2] z2d2d4 | 
[V:3] z8 | 
[V:4] z8 | 
[V:1] z8 | 
[V:2] e4d4 | 
[V:3] c4B3c | 
[V:4] z2C,2G,3A, | 
[V:1] z4z2e2 | 
[V:2] B4z2g2 | 
[V:3] d4e4 | 
[V:4] G,4E,4 | 
[V:1] f2e2c2d2- | 
[V:2] f2g2a2d2 | 
[V:3] z8 | 
[V:4] z8 | 
[V:1] d2^c2d4 | 
[V:2] e4dcBA | 
[V:3] z8 | 
[V:4] z8 | 
[V:1] z8 | 
[V:2] G4z4 | 
[V:3] B2c2d4 | 
[V:4] z2E,2F,2G,2- | 
[V:1] z8 | 
[V:2] z8 | 
[V:3] B2c2d4 | 
[V:4] G,2E,2F,2G,2- | 
[V:1] z2e2f2e2 | 
[V:2] z2c2c3c | 
[V:3] e4z2e2 | 
[V:4] G,2A,4A,2 | 
[V:1] z2e2f2e2 | 
[V:2] c2c2A2a2- | 
[V:3] f2e2z2e2 | 
[V:4] A,2A,2A,2A,2 | 
[V:1] c2d4^c2 | 
[V:2] a2g2a4 | 
[V:3] f2dde4 | 
[V:4] A,2B,2A,4 | 
[V:1] d4z4 | 
[V:2] f4d4 | 
[V:3] d4B3c | 
[V:4] D,4z2F,2 | 
[V:1] B3cd2d2 | 
[V:2] z2g2g2g2 | 
[V:3] d2d2d4 | 
[V:4] G,2G,2G,4 | 
[V:1] B4z2B2 | 
[V:2] g4z2g2 | 
[V:3] z2d2d2d2 | 
[V:4] z2G,2G,2G,2 | 
[V:1] B2B2B4 | 
[V:2] g2g2g4 | 
[V:3] d4z2e2 | 
[V:4] G,4E,3F, | 
[V:1] z8 | 
[V:2] z8 | 
[V:3] d2c2B4 | 
[V:4] G,2A,4^G,2 | 
[V:1] z2c2B2A2- | 
[V:2] z2e2d2c2 | 
[V:3] c2A2B2c2 | 
[V:4] A,4z4 | 
[V:1] A2^G2A2e2 | 
[V:2] B4A4 | 
[V:3] d4e4 | 
[V:4] z8 | 
[V:1] e2e2f2ef | 
[V:2] z2c2d2e2- | 
[V:3] z4z2a2 | 
[V:4] z2A,2F,2C2- | 
[V:1] f2d4^c2 | 
[V:2] e2a4a2 | 
[V:3] g2f2e2e2 | 
[V:4] C2D2A,2A,2 | 
[V:1] d8 | 
[V:2] a4z4 | 
[V:3] d4z4 | 
[V:4] D,8 | 
[V:1] z8 | 
[V:2] (3:2:4e4f2g4g2 | 
[V:3] (3:2:4B4c2d4d2 | 
[V:4] (3:2:4G,4A,2B,4B,2 | 
[V:1] z8 | 
[V:2] (3:2:5g4g2f3ga2 | 
[V:3] (3:2:5d4d2c3de2 | 
[V:4] (3:2:5B,4B,2A,3B,C2 | 
[V:1] z8 | 
[V:2] (3:2:4_b4a2g4^f2 | 
[V:3] (3:2:4f4e2d4c2 | 
[V:4] (3:2:4D4C2B,2A,4 | 
[V:1] z4B3c | 
[V:2] g4z2e2 | 
[V:3] d4z4 | 
[V:4] G,8 | 
[V:1] d2d2d2d2 | 
[V:2] f2g2g2g2- | 
[V:3] z8 | 
[V:4] z8 | 
[V:1] e2d2c2B2 | 
[V:2] g2g2a2g2 | 
[V:3] z8 | 
[V:4] z8 | 
[V:1] A2e2f2e2 | 
[V:2] f2e2d2g2 | 
[V:3] z8 | 
[V:4] z8 | 
[V:1] c2d2d2^c2 | 
[V:2] a2f2g2a2 | 
[V:3] z8 | 
[V:4] z4z2A,2 | 
[V:1] d2B2A4 | 
[V:2] d2g4^f2 | 
[V:3] z8 | 
[V:4] B,2G,2D4 | 
[V:1] z8 | 
[V:2] z8 | 
[V:3] (3:2:4B4c2d4d2 | 
[V:4] (3:2:4G,4A,2_B,4B,2 | 
[V:1] z8 | 
[V:2] z8 | 
[V:3] (3d2d2d2(3c3de2 | 
[V:4] (3_B,2B,2B,2(3A,2F,2G,2 | 
[V:1] z8 | 
[V:2] z8 | 
[V:3] (3:2:4f4e2d4^c2 | 
[V:4] (3:2:4A,4G,2F,2E,4 | 
[V:1] z4B2c2 | 
[V:2] z4z2e2 | 
[V:3] d4z4 | 
[V:4] D,2D4E2 | 
[V:1] d4d2e2 | 
[V:2] f2g4g2- | 
[V:3] z8 | 
[V:4] DCB,A,G,4 | 
[V:1] d2c2B4 | 
[V:2] g2a2g3f | 
[V:3] z8 | 
[V:4] z8 | 
[V:1] c2A2B2c2 | 
[V:2] e2f2d2e2 | 
[V:3] z8 | 
[V:4] z8 | 
[V:1] d4e4 | 
[V:2] f2g4a2- | 
[V:3] z8 | 
[V:4] z8 | 
[V:1] z2e2f2e2 | 
[V:2] a2a2a2a2 | 
[V:3] z2e2d2e2 | 
[V:4] z2A,2D,2A,2 | 
[V:1] e2d2d2^c2 | 
[V:2] a2g2a4 | 
[V:3] c2d2e4 | 
[V:4] A,2B,2A,4 | 
[V:1] d8 | 
[V:2] f4z4 | 
[V:3] d4z4 | 
[V:4] D,8 | 
[V:1] z8 | 
[V:2] (3:2:4d4e2f4f2 | 
[V:3] (3:2:4B4c2d4d2 | 
[V:4] z8 | 
[V:1] z8 | 
[V:2] (3:2:5f4f2e3fg2 | 
[V:3] (3:2:5d4d2c3de2 | 
[V:4] z8 | 
[V:1] z8 | 
[V:2] (3:2:4a4g2f2e4 | 
[V:3] (3:2:4f4e2d4^c2 | 
[V:4] z8 | 
[V:1] z4z2d2 | 
[V:2] d8 | 
[V:3] d4B3c | 
[V:4] z4z2G,2 | 
[V:1] B2B2B4 | 
[V:2] z2g2g4- | 
[V:3] d4d4 | 
[V:4] G,6G,2 | 
[V:1] B2B2c3B/c/ | 
[V:2] g2g2g4 | 
[V:3] d4c2e2 | 
[V:4] G,4C,2C,2 | 
[V:1] BAA4^G2 | 
[V:2] g2f2e2e2 | 
[V:3] d2c2B4 | 
[V:4] G,2A,2E,4 | 
[V:1] A4z2c2 | 
[V:2] c4z2a2 | 
[V:3] A4e4 | 
[V:4] A,8 | 
[V:1] c2c2c2c2 | 
[V:2] a2a2a2a2 | 
[V:3] f4eeee | 
[V:4] z2A,2A,2A,2 | 
[V:1] c3BAGA2- | 
[V:2] e2c2d4 | 
[V:3] c2e2f2d2- | 
[V:4] A,2A,2D,2D,2 | 
[V:1] AGG4^F2 | 
[V:2] G4A4 | 
[V:3] d2c2d4 | 
[V:4] E,2E,2D,4 | 
[V:1] G2B3cd2 | 
[V:2] G4z4 | 
[V:3] z4B3c | 
[V:4] E,3F,G,2G,2 | 
[V:1] d2d2z2A2 | 
[V:2] z2d2f2f2 | 
[V:3] d2d2d2d2 | 
[V:4] G,2G,2F,4 | 
[V:1] c2c2B2G2 | 
[V:2] e2f2g2g2 | 
[V:3] c4e4 | 
[V:4] A,4G,2E,2 | 
[V:1] z8 | 
[V:2] f2d2z4 | 
[V:3] d2B2c2d2 | 
[V:4] F,2G,2E,2F,2 | 
[V:1] z8 | 
[V:2] z8 | 
[V:3] B2c2d4 | 
[V:4] G,2A,2F,4 | 
[V:1] z8 | 
[V:2] z8 | 
[V:3] e8 | 
[V:4] E,2A,G,A,G,A,2 | 
[V:1] z8 | 
[V:2] z8 | 
[V:3] z2e2fefe | 
[V:4] E,2A,2D,2A,2- | 
[V:1] z8 | 
[V:2] z8 | 
[V:3] f2e3dd2- | 
[V:4] A,2G,2F,2D,2 | 
[V:1] z4z2d2- | 
[V:2] z8 | 
[V:3] d2^c2d4 | 
[V:4] E,4D,4 | 
[V:1] d2e2d2B2 | 
[V:2] z4z2g2 | 
[V:3] z8 | 
[V:4] G,8 | 
[V:1] c2A2B2c2 | 
[V:2] e2f2g2a2 | 
[V:3] z8 | 
[V:4] z8 | 
[V:1] d4e4 | 
[V:2] f4e2ag | 
[V:3] z8 | 
[V:4] z8 | 
[V:1] z2e2fefe | 
[V:2] aga2d2a2- | 
[V:3] z8 | 
[V:4] z8 | 
[V:1] f2e2A2d2- | 
[V:2] a2g2f2d2 | 
[V:3] z8 | 
[V:4] z8 | 
[V:1] d2^c2d4 | 
[V:2] e4d2g2 | 
[V:3] z4B3c | 
[V:4] z4z2G,2 | 
[V:1] z8 | 
[V:2] f2f2efga | 
[V:3] d2d2e4 | 
[V:4] D,2D,2A,2E,2 | 
[V:1] z8 | 
[V:2] b2a2a2^g2 | 
[V:3] d2c2B4 | 
[V:4] G,2A,2E,4 | 
[V:1] z8 | 
[V:2] a8- | 
[V:3] A4z2A2- | 
[V:4] F,2D,3E,F,G, | 
[V:1] z8 | 
[V:2] a8 | 
[V:3] ABcdedf2- | 
[V:4] A,3B,CB,A,G, | 
[V:1] z8 | 
[V:2] z4a4 | 
[V:3] fee4d2 | 
[V:4] A,E,G,2F,4 | 
[V:1] z2c2B2A2 | 
[V:2] z2g3ffe | 
[V:3] e2e2d2c2 | 
[V:4] E,2C,2G,2A,2 | 
[V:1] B4c2A2- | 
[V:2] g4G2A2- | 
[V:3] d4e2c2- | 
[V:4] G,4C,2F,2- | 
[V:1] AGG4^F2 | 
[V:2] ABcB/c/d3f | 
[V:3] cBG2A4 | 
[V:4] F,G,E,2D,4 | 
[V:1] G8- | 
[V:2] edededg2- | 
[V:3] B8- | 
[V:4] G,8- | 
[V:1] G8- | 
[V:2] gfe4d2 | 
[V:3] B8- | 
[V:4] G,8 | 
[V:1] G8 |]  
[V:2] e8 |]  
[V:3] B8 |]  
[V:4] E,8 |]  



